X: 116
Q: "Spiriten
M: 4/4
L: 1/8
K: G
(^cB) A G (FE) A ^C | D2 z2 z2 (D F) | A2 A A (GF) E D |
"^:S:"d2 d d cB A G | F E z2 z2 ed | cB A G F2 E F "^FINE."| G6 |]
"^Chorus."FG | A2 A> A A2 d c | B2 z2 z2 (FG) | A2 A A A2 d c | B2 z2 z2 ("^D. S."G B) |]


